X: 7
T:A La 'Page'
% Nottingham Music Database
S:Dennis Salter, via PR
M:4/4
L:1/4
K:G
d/2c/2|"G"Bd/2B/2 GA/2B/2|"Am"cc/2B/2 c/2B/2A/2G/2|"D7"FA/2F/2 DF|\
"G"G/2F/2G/2A/2 Bd/2c/2|
"G"Bd/2B/2 GA/2B/2|"Am"c/2B/2c/2d/2 c/2B/2A/2G/2|"D7"FA/2F/2 DF|"G"G3::
e/2f/2|"G"gg/2f/2 g/2f/2e/2d/2|"G"g/2f/2e/2d/2 "D7"f2|\
"D7"ff/2^e/2 f/2=e/2d/2c/2|"D7"f/2e/2d/2c/2 "E7"e2|
ee/2^d/2 e/2=d/2c/2B/2|"E7"e/2d/2c/2B/2 "Am"AB/2c/2|"D7"dd/2e/2 d/2c/2B/2A/2|\
"G"G3:|<end>
<start>
